Simply-Black-Circles/symbolic/panel/nm-device-wired-symbolic.svg

<svg xmlns="http://www.w3.org/2000/svg" width="24" height="24"><path d="M18.6 4.02l-3.87 3.87a4.8 4.8 0 0 0-2.68-.82A4.8 4.8 0 0 0 8.7 8.45l.4.5-.45-.45a4.8 4.8 0 0 0-1.39 3.37 4.8 4.8 0 0 0 .82 2.68L4.02 18.6l1.38 1.38 4.06-4.06a4.8 4.8 0 0 0 2.6.76 4.8 4.8 0 0 0 3.37-1.4 4.8 4.8 0 0 0 1.43-3.41 4.8 4.8 0 0 0-.76-2.59l3.88-3.88zm-5.23 9.2l.55.55z" fill="gray"/></svg>

<?xml version="1.0" encoding="UTF-8" standalone="no"?>
<svg
   xmlns:dc="http://purl.org/dc/elements/1.1/"
   xmlns:cc="http://creativecommons.org/ns#"
   xmlns:rdf="http://www.w3.org/1999/02/22-rdf-syntax-ns#"
   xmlns:svg="http://www.w3.org/2000/svg"
   xmlns="http://www.w3.org/2000/svg"
   xmlns:sodipodi="http://sodipodi.sourceforge.net/DTD/sodipodi-0.dtd"
   xmlns:inkscape="http://www.inkscape.org/namespaces/inkscape"
   width="24"
   height="24"
   version="1.1"
   id="svg4"
   sodipodi:docname="nm-device-wired-symbolic.svg"
   inkscape:version="0.92.4 (5da689c313, 2019-01-14)">
  <metadata
     id="metadata10">
    <rdf:RDF>
      <cc:Work
         rdf:about="">
        <dc:format>image/svg+xml</dc:format>
        <dc:type
           rdf:resource="http://purl.org/dc/dcmitype/StillImage" />
        <dc:title></dc:title>
      </cc:Work>
    </rdf:RDF>
  </metadata>
  <defs
     id="defs8" />
  <sodipodi:namedview
     pagecolor="#ffffff"
     bordercolor="#666666"
     borderopacity="1"
     objecttolerance="10"
     gridtolerance="10"
     guidetolerance="10"
     inkscape:pageopacity="0"
     inkscape:pageshadow="2"
     inkscape:window-width="1085"
     inkscape:window-height="480"
     id="namedview6"
     showgrid="false"
     inkscape:zoom="9.8333333"
     inkscape:cx="1.0677966"
     inkscape:cy="12"
     inkscape:window-x="0"
     inkscape:window-y="25"
     inkscape:window-maximized="0"
     inkscape:current-layer="svg4" />
  <path
     d="M 18.6,4.02 14.73,7.89 A 4.8,4.8 0 0 0 12.05,7.07 4.8,4.8 0 0 0 8.7,8.45 L 9.1,8.95 8.65,8.5 a 4.8,4.8 0 0 0 -1.39,3.37 4.8,4.8 0 0 0 0.82,2.68 L 4.02,18.6 5.4,19.98 9.46,15.92 a 4.8,4.8 0 0 0 2.6,0.76 4.8,4.8 0 0 0 3.37,-1.4 4.8,4.8 0 0 0 1.43,-3.41 A 4.8,4.8 0 0 0 16.1,9.28 L 19.98,5.4 Z m -5.23,9.2 0.55,0.55 z"
     id="path2"
     inkscape:connector-curvature="0"
     style="fill:#808080" />
</svg>
